images/url.svg

<svg xmlns="http://www.w3.org/2000/svg" viewBox="0 0 14 14"><path d="M0 0v14h14V0H0zm13 13H1V1h12v12zM7 3.7l-1-.4-3 7 1 .4 3-7zm4 0l-1-.4-3 7 1 .4 3-7z"/></svg>

<?xml version="1.0" encoding="utf-8"?>
<!-- Generator: Adobe Illustrator 21.1.0, SVG Export Plug-In . SVG Version: 6.00 Build 0)  -->
<svg version="1.1" id="Layer_1" xmlns="http://www.w3.org/2000/svg" xmlns:xlink="http://www.w3.org/1999/xlink" x="0px" y="0px"
	 viewBox="0 0 14 14" style="enable-background:new 0 0 14 14;" xml:space="preserve">
<path d="M0,0v14h14V0H0z M13,13H1V1h12V13z M7,3.7L6,3.3l-3,7L4,10.7L7,3.7z M11,3.7L10,3.3l-3,7L8,10.7L11,3.7z"/>
</svg>
